mastodon.svg

<svg fill="currentColor" viewBox="0 0 24 24"><path d="M20.94 14c-.28 1.41-2.44 2.96-4.97 3.26-1.31.15-2.6.3-3.97.24-2.25-.11-4-.54-4-.54v.62c.32 2.22 2.22 2.35 4.03 2.42 1.82.05 3.44-.46 3.44-.46l.08 1.65s-1.28.68-3.55.81c-1.25.07-2.81-.03-4.62-.5-3.92-1.05-4.6-5.24-4.7-9.5l-.01-3.43c0-4.34 2.83-5.61 2.83-5.61C6.95 2.3 9.41 2 11.97 2h.06c2.56 0 5.02.3 6.47.96 0 0 2.83 1.27 2.83 5.61 0 0 .04 3.21-.39 5.43M18 8.91c0-1.08-.3-1.91-.85-2.56-.56-.63-1.3-.96-2.23-.96-1.06 0-1.87.41-2.42 1.23l-.5.88-.5-.88c-.56-.82-1.36-1.23-2.43-1.23-.92 0-1.66.33-2.23.96C6.29 7 6 7.83 6 8.91v5.26h2.1V9.06c0-1.06.45-1.62 1.36-1.62 1 0 1.5.65 1.5 1.93v2.79h2.07V9.37c0-1.28.5-1.93 1.51-1.93.9 0 1.35.56 1.35 1.62v5.11H18z"/></svg>

<svg  viewBox="0 0 24 24" fill="currentColor"><path  d="M20.94,14C20.66,15.41 18.5,16.96 15.97,17.26C14.66,17.41 13.37,17.56 12,17.5C9.75,17.39 8,16.96 8,16.96V17.58C8.32,19.8 10.22,19.93 12.03,20C13.85,20.05 15.47,19.54 15.47,19.54L15.55,21.19C15.55,21.19 14.27,21.87 12,22C10.75,22.07 9.19,21.97 7.38,21.5C3.46,20.45 2.78,16.26 2.68,12L2.67,8.57C2.67,4.23 5.5,2.96 5.5,2.96C6.95,2.3 9.41,2 11.97,2H12.03C14.59,2 17.05,2.3 18.5,2.96C18.5,2.96 21.33,4.23 21.33,8.57C21.33,8.57 21.37,11.78 20.94,14M18,8.91C18,7.83 17.7,7 17.15,6.35C16.59,5.72 15.85,5.39 14.92,5.39C13.86,5.39 13.05,5.8 12.5,6.62L12,7.5L11.5,6.62C10.94,5.8 10.14,5.39 9.07,5.39C8.15,5.39 7.41,5.72 6.84,6.35C6.29,7 6,7.83 6,8.91V14.17H8.1V9.06C8.1,8 8.55,7.44 9.46,7.44C10.46,7.44 10.96,8.09 10.96,9.37V12.16H13.03V9.37C13.03,8.09 13.53,7.44 14.54,7.44C15.44,7.44 15.89,8 15.89,9.06V14.17H18V8.91Z"/></svg>
